storage/app/icons/phosphoricons/duotone/hash-straight-duotone.svg

<svg xmlns="http://www.w3.org/2000/svg" fill="currentColor" viewBox="0 0 256 256"><path d="M160 96v64H96V96Z" opacity=".2"/><path d="M216 152h-48v-48h48a8 8 0 0 0 0-16h-48V40a8 8 0 0 0-16 0v48h-48V40a8 8 0 0 0-16 0v48H40a8 8 0 0 0 0 16h48v48H40a8 8 0 0 0 0 16h48v48a8 8 0 0 0 16 0v-48h48v48a8 8 0 0 0 16 0v-48h48a8 8 0 0 0 0-16m-112 0v-48h48v48Z"/></svg>

<svg xmlns="http://www.w3.org/2000/svg" viewBox="0 0 256 256" fill="currentColor"><path d="M160,96v64H96V96Z" opacity="0.2"/><path d="M216,152H168V104h48a8,8,0,0,0,0-16H168V40a8,8,0,0,0-16,0V88H104V40a8,8,0,0,0-16,0V88H40a8,8,0,0,0,0,16H88v48H40a8,8,0,0,0,0,16H88v48a8,8,0,0,0,16,0V168h48v48a8,8,0,0,0,16,0V168h48a8,8,0,0,0,0-16Zm-112,0V104h48v48Z"/></svg>
